X: 20883
T: Jonah's Crossing
R: waltz
M: 3/4
K: Fdorian
[M:4/4] F AB|:cc c_d cF AB|ce (c2c)F AB
cc c_d cF AB|(c2c)e fe/c/ B2|
[M:3/4]
BA FF FF|FA FF FF|FA FF FF|1 (F2F)F AB:|2 F6||
|:FE/C/ EF AB|c6|FE/C/ EF AB|(c2c)e fe/c/
BB BB BB|BA FF FF|FA FF FF|F6:|

